Numix/16/status/indicator-keyboard-Ka.svg

<?xml version="1.0" encoding="UTF-8" standalone="no"?>
<svg
   xmlns:dc="http://purl.org/dc/elements/1.1/"
   xmlns:cc="http://creativecommons.org/ns#"
   xmlns:rdf="http://www.w3.org/1999/02/22-rdf-syntax-ns#"
   xmlns:svg="http://www.w3.org/2000/svg"
   xmlns="http://www.w3.org/2000/svg"
   xmlns:sodipodi="http://sodipodi.sourceforge.net/DTD/sodipodi-0.dtd"
   xmlns:inkscape="http://www.inkscape.org/namespaces/inkscape"
   viewBox="0 0 16 16"
   id="svg2"
   version="1.1"
   inkscape:version="0.91 r13725"
   sodipodi:docname="indicator-keyboard-Ka.svg">
  <metadata
     id="metadata13">
    <rdf:RDF>
      <cc:Work
         rdf:about="">
        <dc:format>image/svg+xml</dc:format>
        <dc:type
           rdf:resource="http://purl.org/dc/dcmitype/StillImage" />
      </cc:Work>
    </rdf:RDF>
  </metadata>
  <defs
     id="defs11" />
  <sodipodi:namedview
     pagecolor="#ffffff"
     bordercolor="#666666"
     borderopacity="1"
     objecttolerance="10"
     gridtolerance="10"
     guidetolerance="10"
     inkscape:pageopacity="0"
     inkscape:pageshadow="2"
     inkscape:window-width="640"
     inkscape:window-height="480"
     id="namedview9"
     showgrid="false"
     inkscape:zoom="14.75"
     inkscape:cx="8"
     inkscape:cy="8"
     inkscape:window-x="65"
     inkscape:window-y="24"
     inkscape:window-maximized="0"
     inkscape:current-layer="svg2" />
  <path
     style="fill:#ececec;fill-opacity:1"
     d="M 1.5996094 0 C 0.71320937 2.9605947e-16 0 0.71320937 0 1.5996094 L 0 14.400391 C 2.9605947e-16 15.286791 0.71320937 16 1.5996094 16 L 14.400391 16 C 15.286791 16 16 15.286791 16 14.400391 L 16 1.5996094 C 16 0.71320937 15.286791 0 14.400391 0 L 1.5996094 0 z M 3.7753906 4.8320312 L 4.3886719 4.8320312 L 4.3886719 7.7382812 C 4.6166719 7.5342813 4.8685313 7.3011094 5.1445312 7.0371094 C 5.4265312 6.7671094 5.7026563 6.4965625 5.9726562 6.2265625 C 6.2486562 5.9565625 6.5060938 5.699125 6.7460938 5.453125 C 6.9860938 5.207125 7.1782656 5.0000313 7.3222656 4.8320312 L 8.0605469 4.8320312 C 7.8865469 5.0180312 7.6756875 5.2400469 7.4296875 5.4980469 C 7.1836875 5.7500469 6.9224844 6.01125 6.6464844 6.28125 C 6.3704844 6.55125 6.0943594 6.8180312 5.8183594 7.0820312 C 5.5483594 7.3400312 5.3058437 7.567625 5.0898438 7.765625 C 5.2638437 7.873625 5.4504375 8.009875 5.6484375 8.171875 C 5.8524375 8.327875 6.0557656 8.5013594 6.2597656 8.6933594 C 6.4697656 8.8793594 6.6750469 9.0771094 6.8730469 9.2871094 C 7.0770469 9.4911094 7.2654531 9.6982031 7.4394531 9.9082031 C 7.6194531 10.118203 7.7780156 10.321531 7.9160156 10.519531 C 8.0600156 10.717531 8.1775781 10.900359 8.2675781 11.068359 L 7.5839844 11.068359 C 7.3799844 10.756359 7.148625 10.448578 6.890625 10.142578 C 6.638625 9.8365783 6.3718437 9.5473437 6.0898438 9.2773438 C 5.8078437 9.0073437 5.5186094 8.7610625 5.2246094 8.5390625 C 4.9366094 8.3170625 4.6586719 8.1324219 4.3886719 7.9824219 L 4.3886719 11.068359 L 3.7753906 11.068359 L 3.7753906 4.8320312 z M 10.548828 6.3085938 C 10.854828 6.3085938 11.114219 6.3533594 11.324219 6.4433594 C 11.540219 6.5273594 11.713703 6.6467344 11.845703 6.8027344 C 11.977703 6.9527344 12.072812 7.13375 12.132812 7.34375 C 12.192813 7.55375 12.224609 7.7813437 12.224609 8.0273438 L 12.224609 10.960938 C 12.164609 10.978937 12.076891 10.999438 11.962891 11.023438 C 11.848891 11.041437 11.716406 11.063891 11.566406 11.087891 C 11.416406 11.111891 11.2485 11.128625 11.0625 11.140625 C 10.8825 11.158625 10.695906 11.167969 10.503906 11.167969 C 10.257906 11.167969 10.030312 11.141891 9.8203125 11.087891 C 9.6163125 11.033891 9.43725 10.949938 9.28125 10.835938 C 9.13125 10.715937 9.0099219 10.564766 8.9199219 10.384766 C 8.8359219 10.198766 8.7949219 9.9749374 8.7949219 9.7109375 C 8.7949219 9.4589375 8.8434531 9.2425 8.9394531 9.0625 C 9.0354531 8.8825 9.16975 8.7350938 9.34375 8.6210938 C 9.51775 8.5010938 9.7248437 8.413375 9.9648438 8.359375 C 10.204843 8.305375 10.466047 8.2792969 10.748047 8.2792969 C 10.832047 8.2792969 10.917812 8.284875 11.007812 8.296875 C 11.103812 8.302875 11.195297 8.3140313 11.279297 8.3320312 C 11.369297 8.3440313 11.443906 8.3609062 11.503906 8.3789062 C 11.569906 8.3909063 11.614672 8.4020625 11.638672 8.4140625 L 11.638672 8.1269531 C 11.638672 7.9649531 11.627516 7.8082031 11.603516 7.6582031 C 11.579516 7.5022031 11.525406 7.3641406 11.441406 7.2441406 C 11.363406 7.1181406 11.249609 7.0192656 11.099609 6.9472656 C 10.955609 6.8692656 10.763437 6.8300781 10.523438 6.8300781 C 10.181437 6.8300781 9.9258122 6.8543437 9.7578125 6.9023438 C 9.5898125 6.9503438 9.4666719 6.9895312 9.3886719 7.0195312 L 9.3085938 6.5058594 C 9.4105938 6.4578594 9.5653906 6.4130938 9.7753906 6.3710938 C 9.9913904 6.3290938 10.248828 6.3085937 10.548828 6.3085938 z M 10.730469 8.7832031 C 10.586469 8.7832031 10.435297 8.7943594 10.279297 8.8183594 C 10.123297 8.8363594 9.979656 8.881125 9.8476562 8.953125 C 9.7156562 9.019125 9.6074375 9.1124219 9.5234375 9.2324219 C 9.4394375 9.3524219 9.3984375 9.5129375 9.3984375 9.7109375 C 9.3984375 9.8849375 9.4245156 10.030391 9.4785156 10.150391 C 9.5385156 10.270391 9.6206562 10.367453 9.7226562 10.439453 C 9.8306562 10.511453 9.9556096 10.565563 10.099609 10.601562 C 10.249609 10.631562 10.417516 10.646484 10.603516 10.646484 C 10.831516 10.646484 11.029266 10.640906 11.197266 10.628906 C 11.371266 10.610906 11.518672 10.588453 11.638672 10.564453 L 11.638672 8.9277344 C 11.572672 8.8977344 11.468219 8.8678906 11.324219 8.8378906 C 11.180219 8.8018906 10.982469 8.7832031 10.730469 8.7832031 z "
     id="path4" />
</svg>

<svg xmlns="http://www.w3.org/2000/svg" viewBox="0 0 16 16">
 <path d="m 1.6 0 c -0.886 0 -1.6 0.713 -1.6 1.6 l 0 12.801 c 0 0.886 0.713 1.6 1.6 1.6 l 12.801 0 c 0.886 0 1.6 -0.713 1.6 -1.6 l 0 -12.801 c 0 -0.886 -0.713 -1.6 -1.6 -1.6 l -12.801 0 z m 2.176 4.832 l 0.613 0 l 0 2.906 c 0.228 -0.204 0.48 -0.437 0.756 -0.701 c 0.282 -0.27 0.558 -0.541 0.828 -0.811 c 0.276 -0.27 0.533 -0.527 0.773 -0.773 c 0.24 -0.246 0.432 -0.453 0.576 -0.621 l 0.738 0 c -0.174 0.186 -0.385 0.408 -0.631 0.666 c -0.246 0.252 -0.507 0.513 -0.783 0.783 c -0.276 0.27 -0.552 0.537 -0.828 0.801 c -0.27 0.258 -0.513 0.486 -0.729 0.684 c 0.174 0.108 0.361 0.244 0.559 0.406 c 0.204 0.156 0.407 0.329 0.611 0.521 c 0.21 0.186 0.415 0.384 0.613 0.594 c 0.204 0.204 0.392 0.411 0.566 0.621 c 0.18 0.21 0.339 0.413 0.477 0.611 c 0.144 0.198 0.262 0.381 0.352 0.549 l -0.684 0 c -0.204 -0.312 -0.435 -0.62 -0.693 -0.926 c -0.252 -0.306 -0.519 -0.595 -0.801 -0.865 c -0.282 -0.27 -0.571 -0.516 -0.865 -0.738 c -0.288 -0.222 -0.566 -0.407 -0.836 -0.557 l 0 3.086 l -0.613 0 l 0 -6.236 z m 6.773 1.477 c 0.306 0 0.565 0.045 0.775 0.135 c 0.216 0.084 0.389 0.203 0.521 0.359 c 0.132 0.15 0.227 0.331 0.287 0.541 c 0.06 0.21 0.092 0.438 0.092 0.684 l 0 2.934 c -0.06 0.018 -0.148 0.038 -0.262 0.063 c -0.114 0.018 -0.246 0.04 -0.396 0.064 c -0.15 0.024 -0.318 0.041 -0.504 0.053 c -0.18 0.018 -0.367 0.027 -0.559 0.027 c -0.246 0 -0.474 -0.026 -0.684 -0.08 c -0.204 -0.054 -0.383 -0.138 -0.539 -0.252 c -0.15 -0.12 -0.271 -0.271 -0.361 -0.451 c -0.084 -0.186 -0.125 -0.41 -0.125 -0.674 c 0 -0.252 0.049 -0.468 0.145 -0.648 c 0.096 -0.18 0.23 -0.327 0.404 -0.441 c 0.174 -0.12 0.381 -0.208 0.621 -0.262 c 0.24 -0.054 0.501 -0.08 0.783 -0.08 c 0.084 0 0.17 0.006 0.26 0.018 c 0.096 0.006 0.187 0.017 0.271 0.035 c 0.09 0.012 0.165 0.029 0.225 0.047 c 0.066 0.012 0.111 0.023 0.135 0.035 l 0 -0.287 c 0 -0.162 -0.011 -0.319 -0.035 -0.469 c -0.024 -0.156 -0.078 -0.294 -0.162 -0.414 c -0.078 -0.126 -0.192 -0.225 -0.342 -0.297 c -0.144 -0.078 -0.336 -0.117 -0.576 -0.117 c -0.342 0 -0.598 0.024 -0.766 0.072 c -0.168 0.048 -0.291 0.087 -0.369 0.117 l -0.08 -0.514 c 0.102 -0.048 0.257 -0.093 0.467 -0.135 c 0.216 -0.042 0.473 -0.063 0.773 -0.063 z m 0.182 2.475 c -0.144 0 -0.295 0.011 -0.451 0.035 c -0.156 0.018 -0.3 0.063 -0.432 0.135 c -0.132 0.066 -0.24 0.159 -0.324 0.279 c -0.084 0.12 -0.125 0.281 -0.125 0.479 c 0 0.174 0.026 0.319 0.08 0.439 c 0.06 0.12 0.142 0.217 0.244 0.289 c 0.108 0.072 0.233 0.126 0.377 0.162 c 0.15 0.03 0.318 0.045 0.504 0.045 c 0.228 0 0.426 -0.006 0.594 -0.018 c 0.174 -0.018 0.321 -0.04 0.441 -0.064 l 0 -1.637 c -0.066 -0.03 -0.17 -0.06 -0.314 -0.09 c -0.144 -0.036 -0.342 -0.055 -0.594 -0.055 z" style="fill:#ececec;fill-opacity:1"/>
</svg>
